X:20
T:Queens March. JGi.020
S:Joshua Gibbons MS,1823,Tealby,Lincs.
L:1/8
M:C
Q:1/4=130
R:march
C:Louth
O:Tealby,Lincolnshire
Z:VMP/R.Greig, 2009
K:F
f4c4|A2F>F A>Ac>c|f3fg3g|bagf fedc|
f2f>fc2c>c|A2F>FA2c2|f2af c’2ba|g2g>gg2:|
|:b3g fedc|.a2.f2.a2.f2|b3g fedc|.c’2.a2.c’2.a2|
f3fg3g|fedc c’3b|a2abg2ga|f2f>ff2:|
|:”TRIO”f4a2c’2|c’6c’/b/a/g/|f2f2g2g2|agabg2z2|
f4a2c’2|c’6b/a/g//f/|fedc d2e2|f2f>ff2:|
|:c|g3ec2zc|c’3af2zc|g2ag fedc|c’3af2zc|
f4a2c’2|c’4bagf|fedcd2e2|f2f>ff2:|

